X:1
T:Wyke, 88.88.6
T:Wyke, 88.88.6
T:Leslie Hays Heward, ca. 1910
T:Public Domain Courtesy of the Cyber Hymnal™
C:Leslie Hays Heward, ca. 1910
Z:Public Domain
Z:Courtesy of the Cyber Hymnal™
%%score ( 1 2 ) ( 3 4 )
L:1/8
Q:1/4=112
M:4/4
K:D
V:1 treble 
V:2 treble 
V:3 bass 
V:4 bass 
V:1
 [DF]2 | [EA]2 [CE]2 G2 [DF]2 | [B,E]3 [B,D] [A,C]2 [EG]2 | F2 [GB]2 A2 [Bd]2 | %4
 [Ac]2 [^GB]2 [EA]2 [FA]2 x | [Cc]2 [^E^G]2 B2 [FA]2 | [D^G]3 [DF] [C^E]2 [Fc]2 | %7
 [Ee]2 [^GB]2 d2 [Dc]2 | [FB]3 [FA] [E^G]2 [GB]2 | [FA]2 d2 f2 z x3 | [Fd]3 |] %11
V:2
 x2 | x4 (DE) x2 | x8 | F2 A2 x4 | x9 | x4 (F^G) x2 | x8 | x4 (FE) x2 | x8 | x2 (FG) A3 (e2 G) | %10
 x3 |] %11
V:3
 [D,A,]2 | [C,A,]2 [A,,C]2 B,2 [D,A,]2 | [G,,G,]3 [G,,F,] [A,,E,]2 [C,A,]2 | %3
 [D,A,]2 [E,C]2 [F,D]2 [B,,F]2 | E3 z D [A,C]2 [F,A,]2 | [^E,^G,]2 [C,C]2 C2 [F,C]2 | %6
 [B,,B,]3 [B,,A,] [C,^G,]2 A,2 | [^G,B,]2 [E,E]2 ([F,A,][G,B,]) [A,C]2 | %8
 [D,D]3 [D,C] [E,B,]2 [^E,D]2 | [F,C]2 [B,D]2 D2 [A,C]2 x2 | [D,D]3 |] %11
V:4
 x2 | x4 (B,,C,) x2 | x8 | x8 | (C,D,) D,2 x5 | x4 (^D,^E,) x2 | x6 A,2 | x8 | x8 | x4 (F,G,) x4 | %10
 x3 |] %11

